static/assets/images/networks/heco.svg

<svg width="256" height="256" viewBox="0 0 256 256" fill="none" xmlns="http://www.w3.org/2000/svg">
<path d="M128 256C198.692 256 256 198.692 256 128C256 57.3075 198.692 0 128 0C57.3075 0 0 57.3075 0 128C0 198.692 57.3075 256 128 256Z" fill="#5CC538"/>
<path d="M192.682 52.2345C193.642 52.8905 194.7 53.442 195.54 54.2266C196.936 55.5223 197.623 57.2141 197.623 59.1375C197.623 75.55 197.626 91.9631 197.632 108.377C197.632 111.664 197.288 114.913 196.749 118.155C195.293 126.816 192.037 135.077 187.192 142.408C185.11 145.531 182.773 148.477 180.204 151.216C176.061 155.674 171.32 159.39 166.105 162.494C161.836 165.034 157.342 167.127 152.554 168.484C149.6 169.319 146.588 169.968 143.57 170.576C139.992 171.301 136.357 171.363 132.714 171.35C124.264 171.317 115.814 171.34 107.363 171.34H106.377V170.426C106.377 164.15 106.351 157.873 106.389 151.596C106.415 149.227 106.91 146.887 107.845 144.711C108.873 142.27 110.3 140.078 112.236 138.269C115.093 135.599 118.426 133.864 122.326 133.223C125.347 132.725 128.377 132.977 131.402 132.958C135.677 132.93 139.751 132.12 143.607 130.247C145.993 129.098 148.208 127.623 150.186 125.864C154.003 122.489 156.77 118.092 158.158 113.195C158.679 111.383 159.011 109.522 159.15 107.641C159.347 104.996 159.328 102.331 159.331 99.6741C159.344 84.1842 159.344 68.6913 159.331 53.1954C159.331 52.8711 159.322 52.5483 159.319 52.224L192.682 52.2345Z" fill="white"/>
<path d="M58.368 144.594C58.4668 143.83 58.5552 143.065 58.6675 142.303C59.0253 139.912 59.3054 137.491 59.7755 135.113C60.4738 131.471 61.5788 127.918 63.0697 124.522C64.5097 121.326 66.114 118.207 67.8763 115.177C69.149 112.968 70.6629 110.875 72.2441 108.867C74.5336 105.96 77.1375 103.337 79.8911 100.85C82.4502 98.5514 85.1963 96.4689 88.1012 94.6243C92.0752 92.0836 96.2588 89.9525 100.724 88.443C103.582 87.4776 106.507 86.6855 109.434 85.9457C111.081 85.5552 112.753 85.283 114.438 85.1312C123.595 84.1807 132.781 84.8682 141.951 84.6829C144.465 84.6306 146.981 84.6754 149.568 84.6754C149.582 84.9519 149.604 85.1895 149.604 85.4227C149.604 91.9715 149.649 98.5219 149.582 105.072C149.559 107.242 148.968 109.336 148.122 111.349C147.089 113.878 145.508 116.146 143.492 117.992C140.723 120.509 137.481 122.147 133.745 122.775C130.728 123.284 127.696 123.042 124.671 123.045C118.658 123.052 113.172 124.689 108.266 128.159C102.463 132.301 98.4815 138.516 97.1498 145.512C96.8535 146.984 96.6936 148.48 96.6721 149.982C96.6402 167.789 96.6337 185.597 96.6526 203.404C96.6526 203.528 96.6601 203.652 96.6661 203.776H63.3093C63.1778 203.648 63.0297 203.539 62.8691 203.45C61.3717 202.852 60.1993 201.875 59.4566 200.461C59.0074 199.614 58.7229 198.695 58.368 197.798V144.594Z" fill="white"/>
<path d="M91.5736 52.2345C92.3867 52.7396 93.2461 53.185 94.0023 53.7618C95.4188 54.8409 96.2229 56.3294 96.4834 58.0764C96.5978 58.9584 96.6478 59.8475 96.6332 60.7366C96.6452 66.6877 96.6452 72.6388 96.6332 78.5898V79.3476C93.7403 80.6926 90.8833 81.9076 88.1311 83.3244C83.988 85.4347 80.0873 87.9888 76.4981 90.9418C74.6309 92.4901 72.8341 94.1266 71.0507 95.772C67.6807 98.9057 64.6722 102.406 62.0815 106.207C60.948 107.851 59.9013 109.554 58.8067 111.227C58.6734 111.401 58.5267 111.564 58.368 111.715V52.2345H91.5736Z" fill="white"/>
<path d="M164.417 203.776C163.643 203.301 162.83 202.879 162.101 202.338C160.643 201.264 159.832 199.759 159.508 198.004C159.398 197.348 159.348 196.682 159.358 196.017C159.346 189.814 159.346 183.612 159.358 177.41V176.546C175.761 170.18 188.458 159.482 197.623 144.445V203.776H164.417Z" fill="white"/>
</svg>

<svg xmlns="http://www.w3.org/2000/svg" fill="none" viewBox="0 0 256 256"><path fill="#5CC538" d="M128 256c70.692 0 128-57.308 128-128S198.692 0 128 0 0 57.308 0 128s57.308 128 128 128"/><path fill="#fff" d="M192.682 52.235c.96.656 2.018 1.207 2.858 1.992 1.396 1.295 2.083 2.987 2.083 4.91q0 24.62.009 49.24c0 3.287-.344 6.536-.883 9.778a62.9 62.9 0 0 1-9.557 24.253 68 68 0 0 1-6.988 8.808c-4.143 4.458-8.884 8.174-14.099 11.278-4.269 2.54-8.763 4.633-13.551 5.99-2.954.835-5.966 1.484-8.984 2.092-3.578.725-7.213.787-10.856.774-8.45-.033-16.9-.01-25.351-.01h-.986v-.914c0-6.276-.026-12.553.012-18.83a17.9 17.9 0 0 1 1.456-6.885c1.028-2.441 2.455-4.633 4.391-6.442 2.857-2.67 6.19-4.405 10.09-5.046 3.021-.498 6.051-.246 9.076-.265 4.275-.028 8.349-.838 12.205-2.711a28.5 28.5 0 0 0 6.579-4.383 26.6 26.6 0 0 0 7.972-12.669c.521-1.812.853-3.673.992-5.554.197-2.645.178-5.31.181-7.967q.02-23.235 0-46.479c0-.324-.009-.647-.012-.971z"/><path fill="#fff" d="M58.368 144.594c.099-.764.187-1.529.3-2.291.357-2.391.637-4.812 1.108-7.19a49.6 49.6 0 0 1 3.294-10.591 102 102 0 0 1 4.806-9.345c1.273-2.209 2.787-4.302 4.368-6.31 2.29-2.907 4.894-5.53 7.647-8.017a62 62 0 0 1 8.21-6.226c3.974-2.54 8.158-4.671 12.623-6.181 2.858-.965 5.783-1.757 8.71-2.497a35.5 35.5 0 0 1 5.004-.815c9.157-.95 18.343-.263 27.513-.448 2.514-.052 5.03-.008 7.617-.008.014.277.036.514.036.748 0 6.549.045 13.099-.022 19.649-.023 2.17-.614 4.264-1.46 6.277a18.5 18.5 0 0 1-4.63 6.643c-2.769 2.517-6.011 4.155-9.747 4.783-3.017.509-6.049.267-9.074.27-6.013.007-11.499 1.644-16.405 5.114a27.68 27.68 0 0 0-11.116 17.353 24.4 24.4 0 0 0-.478 4.47q-.047 26.711-.02 53.422c0 .124.008.248.014.372H63.31a2 2 0 0 0-.44-.326c-1.497-.598-2.67-1.575-3.412-2.989-.45-.847-.734-1.766-1.089-2.663zm33.206-92.359c.813.505 1.672.95 2.428 1.527 1.417 1.079 2.22 2.567 2.481 4.314q.172 1.325.15 2.66.018 8.928 0 17.854v.758c-2.893 1.345-5.75 2.56-8.502 3.976a64 64 0 0 0-11.633 7.618c-1.867 1.548-3.664 3.185-5.447 4.83a61.7 61.7 0 0 0-8.97 10.435c-1.133 1.644-2.18 3.347-3.274 5.02q-.2.261-.439.488v-59.48zm72.843 151.541c-.774-.475-1.587-.897-2.316-1.438-1.458-1.074-2.269-2.579-2.593-4.334-.11-.656-.16-1.322-.15-1.987q-.018-9.304 0-18.607v-.864c16.403-6.366 29.1-17.064 38.265-32.101v59.331z"/></svg>
